X: 7860
T: Compass Rose
R: reel
M: 4/4
K: Bmixolydian
|:Bdf^a b2fe|def(c c)f^af|Bf^af abfg|gffe eddc|
Bdf^a b2fe|def(c c)BBc|FGg(f f)FGf|gffd BbbB:|
|:FGg(f f)FGf|gffd cf^af|^ABg(f f)ABf|gffd cccB|
EFg(f f)^ABf|gffd cf^af|^abfg gffe|eddc cBBc:|

